modules/hawcons-filled/icons/icon-131-cloud-error.svg

<?xml version="1.0" encoding="UTF-8" standalone="no"?>
<svg width="32px" height="32px" viewBox="0 0 32 32" version="1.1" xmlns="http://www.w3.org/2000/svg" xmlns:xlink="http://www.w3.org/1999/xlink" xmlns:sketch="http://www.bohemiancoding.com/sketch/ns">
    <!-- Generator: Sketch 3.0.3 (7891) - http://www.bohemiancoding.com/sketch -->
    <title>icon 131 cloud error</title>
    <desc>Created with Sketch.</desc>
    <defs></defs>
    <g id="Page-1" stroke="none" stroke-width="1" fill="none" fill-rule="evenodd" sketch:type="MSPage">
        <g id="icon-131-cloud-error" sketch:type="MSArtboardGroup" fill="#929292">
            <path d="M22.4615385,22 L25.0005601,22 C27.7616745,22 30,19.7558048 30,17 C30,14.9035809 28.7132907,13.1085075 26.8828633,12.3655101 L26.8828633,12.3655101 C26.3600217,9.87224935 24.1486546,8 21.5,8 C20.6371017,8 19.8206159,8.19871575 19.0938083,8.55288165 C17.8911816,6.43144875 15.6127573,5 13,5 C9.13400656,5 6,8.13400656 6,12 C6,12.1381509 6.00400207,12.275367 6.01189661,12.4115388 L6.01189661,12.4115388 C4.23965876,13.1816085 3,14.9491311 3,17 C3,19.7614237 5.23249418,22 7.99943992,22 L10.5384615,22 L16.5,12 L22.4615385,22 L22.4615385,22 L22.4615385,22 Z M16.5,14 L23,25 L10,25 L16.5,14 L16.5,14 Z M16,18 L16,21 L17,21 L17,18 L16,18 L16,18 Z M16,22 L16,23 L17,23 L17,22 L16,22 L16,22 Z" id="cloud-error" sketch:type="MSShapeGroup"></path>
        </g>
    </g>
</svg>

<svg width="32" height="32" viewBox="0 0 32 32" xmlns="http://www.w3.org/2000/svg"><path d="M22.462 22H25C27.76 22 30 19.756 30 17a4.998 4.998 0 0 0-3.117-4.634 5.502 5.502 0 0 0-7.79-3.813 7 7 0 0 0-13.082 3.859A5.006 5.006 0 0 0 3 17c0 2.761 2.232 5 5 5h2.538L16.5 12l5.962 10zM16.5 14L23 25H10l6.5-11zm-.5 4v3h1v-3h-1zm0 4v1h1v-1h-1z" fill="#929292" fill-rule="evenodd"/></svg>
